usr/share/icons/biglinux-icons-material-dark/scalable/apps/haruna.svg

<svg xmlns="http://www.w3.org/2000/svg" xml:space="preserve" width="24" height="24" fill="none">
<defs>
<radialGradient id="a" cx=".179" cy="-1.748" r="1" fx=".179" fy="-1.748" gradientTransform="matrix(0 16.5109 -16.50125 0 -19.851 -2.218)" gradientUnits="userSpaceOnUse" spreadMethod="pad">
<stop offset="0" style="stop-opacity:1;stop-color:#999"/>
<stop offset="1" style="stop-opacity:1;stop-color:#2f3134"/>
</radialGradient>
</defs>
<path d="M9 .75C1.5.75.75 4.5.75 9 .75 15 3 17.25 9 17.25S17.25 15 17.25 9C17.25 4.5 16.5.75 9 .75" style="fill:url(#a);stroke:none" transform="scale(1.33333)"/>
<path d="M4.176 3.863h2.801v10.273H4.176Z" style="fill:#e6e6e6;fill-opacity:1;fill-rule:nonzero;stroke:none" transform="scale(1.33333)"/>
<path d="M5.109 5.422h.934v.934h-.934Zm0 3.109h.934v.938h-.934Zm0 3.114h.934v.934h-.934Z" style="fill:#333;fill-opacity:1;fill-rule:nonzero;stroke:none" transform="scale(1.33333)"/>
<path d="M11.023 3.863h2.801v10.273h-2.801z" style="fill:#e6e6e6;fill-opacity:1;fill-rule:nonzero;stroke:none" transform="scale(1.33333)"/>
<path d="M11.957 5.422h.934v.934h-.934zm0 3.109h.934v.938h-.934zm0 3.114h.934v.934h-.934z" style="fill:#333;fill-opacity:1;fill-rule:nonzero;stroke:none" transform="scale(1.33333)"/>
<path d="M6.664 7.91h4.672v2.18H6.664Z" style="fill:#e6e6e6;fill-opacity:1;fill-rule:nonzero;stroke:none" transform="scale(1.33333)"/>
</svg>

<?xml version="1.0" encoding="UTF-8" standalone="no"?>
<svg
   width="24"
   height="24"
   viewBox="0 0 24 24"
   fill="none"
   version="1.1"
   id="svg154"
   sodipodi:docname="app.svg"
   inkscape:version="1.2.2 (b0a8486541, 2022-12-01)"
   xml:space="preserve"
   inkscape:export-filename="../../../svg/haruna.pdf"
   inkscape:export-xdpi="96"
   inkscape:export-ydpi="96"
   xmlns:inkscape="http://www.inkscape.org/namespaces/inkscape"
   xmlns:sodipodi="http://sodipodi.sourceforge.net/DTD/sodipodi-0.dtd"
   xmlns="http://www.w3.org/2000/svg"
   xmlns:svg="http://www.w3.org/2000/svg"><sodipodi:namedview
     id="namedview156"
     pagecolor="#ffffff"
     bordercolor="#000000"
     borderopacity="1"
     inkscape:showpageshadow="0"
     inkscape:pageopacity="1"
     inkscape:pagecheckerboard="false"
     inkscape:deskcolor="#ffffff"
     showgrid="true"
     inkscape:zoom="32"
     inkscape:cx="9.609375"
     inkscape:cy="15.453125"
     inkscape:window-width="1920"
     inkscape:window-height="1052"
     inkscape:window-x="0"
     inkscape:window-y="0"
     inkscape:window-maximized="1"
     inkscape:current-layer="svg154"
     showguides="true"
     guidecolor="#ff0000"
     guideopacity="1"
     inkscape:lockguides="true"
     showborder="true"
     borderlayer="true"><inkscape:grid
       type="xygrid"
       id="grid356"
       color="#000000"
       opacity="0.10196078"
       empcolor="#000000"
       empopacity="0.10196078"
       snapvisiblegridlinesonly="true"
       enabled="true"
       visible="true"
       dotted="false"
       originx="-34"
       originy="0"
       spacingy="1"
       spacingx="1"
       units="px" /><sodipodi:guide
       position="4,12"
       orientation="-1,0"
       id="guide764"
       inkscape:locked="true"
       inkscape:label="left-circle"
       inkscape:color="rgb(255,0,0)" /><sodipodi:guide
       position="5,12"
       orientation="-1,0"
       id="guide2218"
       inkscape:locked="true"
       inkscape:label="left-square"
       inkscape:color="rgb(255,0,0)" /><sodipodi:guide
       position="12,20"
       orientation="0,1"
       id="guide2220"
       inkscape:locked="true"
       inkscape:label="top-circle"
       inkscape:color="rgb(255,0,0)" /><sodipodi:guide
       position="12,5"
       orientation="0,1"
       id="guide2222"
       inkscape:locked="true"
       inkscape:label="bottom-square"
       inkscape:color="rgb(255,0,0)" /><sodipodi:guide
       position="12,4"
       orientation="0,1"
       id="guide2224"
       inkscape:locked="true"
       inkscape:label="bottom-circle"
       inkscape:color="rgb(255,0,0)" /><sodipodi:guide
       position="19,12"
       orientation="-1,0"
       id="guide2226"
       inkscape:locked="true"
       inkscape:label="right-square"
       inkscape:color="rgb(255,0,0)" /><sodipodi:guide
       position="20,12"
       orientation="-1,0"
       id="guide2228"
       inkscape:locked="true"
       inkscape:label="right-circle"
       inkscape:color="rgb(255,0,0)" /><sodipodi:guide
       position="12,19"
       orientation="0,1"
       id="guide2230"
       inkscape:locked="true"
       inkscape:label="top-square"
       inkscape:color="rgb(255,0,0)" /><sodipodi:guide
       position="12,12"
       orientation="1,0"
       id="guide765"
       inkscape:locked="true" /><sodipodi:guide
       position="12,12"
       orientation="0,-1"
       id="guide767"
       inkscape:locked="true" /><sodipodi:guide
       position="12,12"
       orientation="0.70710678,0.70710678"
       id="guide2266"
       inkscape:locked="true"
       inkscape:label=""
       inkscape:color="rgb(255,0,0)" /><sodipodi:guide
       position="12,12"
       orientation="-0.70710678,0.70710678"
       id="guide2994"
       inkscape:locked="true"
       inkscape:label=""
       inkscape:color="rgb(255,0,0)" /><sodipodi:guide
       position="3,12"
       orientation="-1,0"
       id="guide131543"
       inkscape:locked="true"
       inkscape:label="left-horizontal"
       inkscape:color="rgb(255,0,0)" /><sodipodi:guide
       position="12,21"
       orientation="0,1"
       id="guide131545"
       inkscape:locked="true"
       inkscape:label="top-vertical"
       inkscape:color="rgb(255,0,0)" /><sodipodi:guide
       position="21,12"
       orientation="-1,0"
       id="guide131547"
       inkscape:locked="true"
       inkscape:label="right-horizontal"
       inkscape:color="rgb(255,0,0)" /><sodipodi:guide
       position="12,3"
       orientation="0,1"
       id="guide131549"
       inkscape:locked="true"
       inkscape:label="bottom-vertical"
       inkscape:color="rgb(255,0,0)" /><inkscape:page
       x="0"
       y="0"
       width="24"
       height="24"
       id="page2"
       margin="0"
       bleed="0" /></sodipodi:namedview><defs
     id="defs152"><radialGradient
       fx="0.179115"
       fy="-1.748343"
       cx="0.179115"
       cy="-1.748343"
       r="1"
       gradientUnits="userSpaceOnUse"
       gradientTransform="matrix(0,16.510902,-16.501249,0,-19.851082,-2.218255)"
       spreadMethod="pad"
       id="radialGradient2"><stop
         style="stop-opacity:1;stop-color:#999999"
         offset="0"
         id="stop1" /><stop
         style="stop-opacity:1;stop-color:#2f3134"
         offset="1"
         id="stop2" /></radialGradient></defs><g
     id="g1-3"
     inkscape:groupmode="layer"
     inkscape:label="1"><path
       id="path2"
       d="M 9,0.75 C 1.5,0.75 0.75,4.5 0.75,9 0.75,15 3,17.25 9,17.25 15,17.25 17.25,15 17.25,9 17.25,4.5 16.5,0.75 9,0.75 Z"
       transform="scale(1.3333333)"
       style="fill:url(#radialGradient2);stroke:none" /><path
       id="path3"
       d="M 4.176,3.863 H 6.977 V 14.136 H 4.176 Z"
       style="fill:#e6e6e6;fill-opacity:1;fill-rule:nonzero;stroke:none"
       transform="scale(1.3333333)" /><path
       id="path4"
       d="M 5.109,5.422 H 6.043 V 6.356 H 5.109 Z"
       style="fill:#333333;fill-opacity:1;fill-rule:nonzero;stroke:none"
       transform="scale(1.3333333)" /><path
       id="path5"
       d="M 5.109,8.531 H 6.043 V 9.469 H 5.109 Z"
       style="fill:#333333;fill-opacity:1;fill-rule:nonzero;stroke:none"
       transform="scale(1.3333333)" /><path
       id="path6-6"
       d="m 5.109,11.645 h 0.934 v 0.934 H 5.109 Z"
       style="fill:#333333;fill-opacity:1;fill-rule:nonzero;stroke:none"
       transform="scale(1.3333333)" /><path
       id="path7"
       d="m 11.023,3.863 h 2.801 v 10.273 h -2.801 z"
       style="fill:#e6e6e6;fill-opacity:1;fill-rule:nonzero;stroke:none"
       transform="scale(1.3333333)" /><path
       id="path8"
       d="m 11.957,5.422 h 0.934 v 0.934 h -0.934 z"
       style="fill:#333333;fill-opacity:1;fill-rule:nonzero;stroke:none"
       transform="scale(1.3333333)" /><path
       id="path9"
       d="m 11.957,8.531 h 0.934 v 0.938 h -0.934 z"
       style="fill:#333333;fill-opacity:1;fill-rule:nonzero;stroke:none"
       transform="scale(1.3333333)" /><path
       id="path10"
       d="m 11.957,11.645 h 0.934 v 0.934 h -0.934 z"
       style="fill:#333333;fill-opacity:1;fill-rule:nonzero;stroke:none"
       transform="scale(1.3333333)" /><path
       id="path11"
       d="m 6.664,7.91 h 4.672 v 2.18 H 6.664 Z"
       style="fill:#e6e6e6;fill-opacity:1;fill-rule:nonzero;stroke:none"
       transform="scale(1.3333333)" /></g></svg>
